assets/icons/24px/stroke/photo-24px.svg

<svg width="24" height="24" viewBox="0 0 24 24" fill="none" xmlns="http://www.w3.org/2000/svg">
<g clip-path="url(#clip0_878_22044)">
<path fill-rule="evenodd" clip-rule="evenodd" d="M5.93417 1C5.95604 1 5.97799 1 6 1L18.0658 1C18.9523 0.999953 19.7161 0.99991 20.3278 1.08215C20.9833 1.17028 21.6116 1.36902 22.1213 1.87868C22.631 2.38835 22.8297 3.0167 22.9178 3.67221C23.0001 4.28388 23 5.0477 23 5.9342V18.0658C23 18.9523 23.0001 19.7161 22.9178 20.3278C22.8297 20.9833 22.631 21.6117 22.1213 22.1213C21.6116 22.631 20.9833 22.8297 20.3278 22.9179C19.7161 23.0001 18.9523 23.0001 18.0658 23H5.9342C5.0477 23.0001 4.28388 23.0001 3.67221 22.9179C3.0167 22.8297 2.38835 22.631 1.87868 22.1213C1.36902 21.6117 1.17028 20.9833 1.08215 20.3278C0.99991 19.7161 0.999953 18.9523 1 18.0658L1 6C1 5.97799 1 5.95604 1 5.93417C0.999953 5.04769 0.99991 4.28387 1.08215 3.67221C1.17028 3.0167 1.36902 2.38835 1.87868 1.87868C2.38835 1.36902 3.0167 1.17028 3.67221 1.08215C4.28387 0.99991 5.04769 0.999953 5.93417 1ZM3.93871 3.06431C3.50497 3.12263 3.36902 3.21677 3.2929 3.2929C3.21677 3.36902 3.12263 3.50497 3.06431 3.93871C3.00213 4.40121 3 5.02893 3 6V18C3 18.9711 3.00213 19.5988 3.06431 20.0613C3.12263 20.495 3.21677 20.631 3.2929 20.7071C3.36902 20.7832 3.50497 20.8774 3.93871 20.9357C4.40121 20.9979 5.02892 21 6 21H18C18.9711 21 19.5988 20.9979 20.0613 20.9357C20.495 20.8774 20.631 20.7832 20.7071 20.7071C20.7832 20.631 20.8774 20.495 20.9357 20.0613C20.9979 19.5988 21 18.9711 21 18V6C21 5.02893 20.9979 4.40122 20.9357 3.93871C20.8774 3.50497 20.7832 3.36902 20.7071 3.2929C20.631 3.21677 20.495 3.12263 20.0613 3.06431C19.5988 3.00213 18.9711 3 18 3H6C5.02893 3 4.40121 3.00213 3.93871 3.06431Z" fill="white"/>
<path fill-rule="evenodd" clip-rule="evenodd" d="M22.7173 13.0266C22.3274 13.4177 21.6902 13.4227 21.294 13.0378L18.1492 9.9823C17.4557 9.3085 17.0061 8.8746 16.6322 8.59743C16.2816 8.33756 16.1182 8.3092 16.0101 8.30979C15.902 8.31038 15.7389 8.34052 15.3912 8.60419C15.0204 8.88542 14.5757 9.32419 13.8898 10.0055L10.695 13.1789L12.7069 15.139C13.1025 15.5245 13.1067 16.1535 12.7163 16.5441C12.3258 16.9346 11.6886 16.9387 11.293 16.5533L9.11978 14.436C8.43212 13.7661 7.98654 13.3349 7.61574 13.059C7.26826 12.8005 7.1058 12.7715 6.99806 12.7715C6.89031 12.7715 6.72787 12.8006 6.3805 13.0593C6.00983 13.3353 5.56445 13.7667 4.8771 14.437L2.70722 16.553C2.31179 16.9386 1.67456 16.9347 1.28394 16.5443C0.893324 16.154 0.89723 15.5249 1.29267 15.1393L3.50931 12.9777C4.13651 12.3661 4.67733 11.8386 5.16831 11.473C5.69476 11.081 6.27907 10.7846 6.99759 10.7845C7.71612 10.7843 8.30057 11.0804 8.82719 11.4722C8.96092 11.5716 9.09835 11.6831 9.24021 11.805L12.4621 8.60479C12.4776 8.58932 12.4932 8.5739 12.5086 8.55853C13.1347 7.93662 13.6742 7.40062 14.1649 7.02846C14.6909 6.62955 15.2762 6.3267 15.999 6.32277C16.7217 6.31883 17.3104 6.61528 17.8408 7.00844C18.3356 7.37523 18.8812 7.90532 19.5141 8.52038L22.706 11.6216C23.1021 12.0065 23.1072 12.6356 22.7173 13.0266Z" fill="white"/>
</g>
<defs>
<clipPath id="clip0_878_22044">
<rect width="24" height="24" fill="white"/>
</clipPath>
</defs>
</svg>

<svg width="24" height="24" fill="none" xmlns="http://www.w3.org/2000/svg"><g clip-path="url(#clip0_878_22044)" fill-rule="evenodd" clip-rule="evenodd" fill="#fff"><path d="M5.934 1H18.066c.886 0 1.65 0 2.262.082.655.088 1.284.287 1.793.797.51.51.709 1.138.797 1.793C23 4.284 23 5.048 23 5.934v12.132c0 .886 0 1.65-.082 2.262-.088.655-.287 1.284-.797 1.793-.51.51-1.138.709-1.793.797-.612.082-1.376.082-2.262.082H5.934c-.886 0-1.65 0-2.262-.082-.655-.088-1.284-.287-1.793-.797-.51-.51-.709-1.138-.797-1.793C1 19.716 1 18.952 1 18.066V6v-.066c0-.886 0-1.65.082-2.262.088-.655.287-1.284.797-1.793.51-.51 1.138-.709 1.793-.797C4.284 1 5.048 1 5.934 1zM3.94 3.064c-.434.059-.57.153-.646.229-.076.076-.17.212-.229.646C3.002 4.4 3 5.029 3 6v12c0 .971.002 1.599.064 2.061.059.434.153.57.229.646.076.076.212.17.646.229C4.4 20.998 5.029 21 6 21h12c.971 0 1.599-.002 2.061-.064.434-.059.57-.153.646-.229.076-.076.17-.212.229-.646.062-.462.064-1.09.064-2.061V6c0-.971-.002-1.599-.064-2.061-.059-.434-.153-.57-.229-.646-.076-.076-.212-.17-.646-.229C19.6 3.002 18.971 3 18 3H6c-.971 0-1.599.002-2.061.064z"/><path d="M22.717 13.027a1.016 1.016 0 0 1-1.423.01l-3.145-3.055c-.693-.673-1.143-1.107-1.517-1.385-.35-.26-.514-.288-.622-.287-.108 0-.271.03-.619.294-.37.281-.815.72-1.501 1.402l-3.195 3.173 2.012 1.96a.985.985 0 0 1 .01 1.405c-.391.39-1.028.395-1.424.01L9.12 14.435c-.688-.67-1.133-1.101-1.504-1.377-.348-.258-.51-.287-.618-.287-.108 0-.27.029-.618.287-.37.276-.816.708-1.503 1.378l-2.17 2.116a1.016 1.016 0 0 1-1.423-.009.985.985 0 0 1 .009-1.405l2.216-2.161c.628-.612 1.168-1.14 1.66-1.505.526-.392 1.11-.688 1.829-.689.718 0 1.303.296 1.83.688.133.1.27.211.412.333l3.222-3.2.047-.046c.626-.622 1.165-1.158 1.656-1.53.526-.4 1.111-.702 1.834-.706.723-.004 1.311.292 1.842.685.495.367 1.04.897 1.673 1.512l3.192 3.102a.985.985 0 0 1 .011 1.405z"/></g><defs><clipPath id="clip0_878_22044"><path fill="#fff" d="M0 0H24V24H0z"/></clipPath></defs></svg>
